;FLAVOR:Marlin
;TIME:20474
;Filament used: 18.784m
;Layer height: 0.28
;MINX:47.842
;MINY:70.545
;MINZ:0.28
;MAXX:174.442
;MAXY:135.145
;MAXZ:35.84
;Generated with Cura_SteamEngine 4.10.0
M140 S50
M105
M190 S50
M104 S200
M105
M109 S200
M82 ;absolute extrusion mode
; Ender 3 Custom Start G-code
G92 E0 ; Reset Extruder
G28 ; Home all axes
G1 Z2.0 F3000 ; Move Z Axis up little to prevent scratching of Heat Bed
G1 X0.1 Y20 Z0.3 F5000.0 ; Move to start position
G1 X0.1 Y200.0 Z0.3 F1500.0 E15 ; Draw the first line
G1 X0.4 Y200.0 Z0.3 F5000.0 ; Move to side a little
G1 X0.4 Y20 Z0.3 F1500.0 E30 ; Draw the second line
G92 E0 ; Reset Extruder
G1 Z2.0 F3000 ; Move Z Axis up little to prevent scratching of Heat Bed
G1 X5 Y20 Z0.3 F5000.0 ; Move over to prevent blob squish
G92 E0
G92 E0
G1 F2700 E-5
;LAYER_COUNT:128
;LAYER:0
M107
G0 F6000 X48.754 Y70.78 Z0.28
;TYPE:SKIRT
G1 F2700 E0
G1 F1200 X49.101 Y70.628 E0.01764
G1 X49.642 Y70.545 E0.04313
G1 X172.642 Y70.545 E5.77052
G1 X173.019 Y70.585 E5.78817
G1 X173.379 Y70.703 E5.80582
G1 X173.706 Y70.893 E5.82343
G1 X173.987 Y71.148 E5.84109
G1 X174.207 Y71.457 E5.85876
G1 X174.359 Y71.804 E5.8764
G1 X174.442 Y72.345 E5.90188
G1 X174.442 Y133.345 E8.7423
G1 X174.402 Y133.722 E8.75995
G1 X174.284 Y134.082 E8.77759
G1 X174.094 Y134.409 E8.7952
G1 X173.839 Y134.69 E8.81287
G1 X173.53 Y134.91 E8.83053
G1 X173.183 Y135.062 E8.84817
G1 X172.642 Y135.145 E8.87366
G1 X49.642 Y135.145 E14.60106
G1 X49.265 Y135.105 E14.61871
G1 X48.905 Y134.987 E14.63635
G1 X48.578 Y134.797 E14.65396
G1 X48.297 Y134.542 E14.67163
G1 X48.077 Y134.233 E14.68929
G1 X47.925 Y133.886 E14.70693
G1 X47.842 Y133.345 E14.73242
G1 X47.842 Y72.345 E17.57283
G1 X47.882 Y71.968 E17.59049
G1 X48 Y71.608 E17.60813
G1 X48.19 Y71.281 E17.62574
G1 X48.445 Y71 E17.64341
G1 X48.754 Y70.78 E17.66107
G0 F6000 X48.835 Y71.201
G1 F1200 X49.129 Y71.042 E17.67663
G1 X49.453 Y70.958 E17.69222
G1 X49.642 Y70.945 E17.70104
G1 X172.642 Y70.945 E23.42843
G1 X172.974 Y70.985 E23.444
G1 X173.286 Y71.102 E23.45952
G1 X173.563 Y71.29 E23.47511
G1 X173.786 Y71.538 E23.49064
G1 X173.945 Y71.832 E23.5062
G1 X174.029 Y72.156 E23.52179
G1 X174.042 Y72.345 E23.53061
G1 X174.042 Y133.345 E26.37103
G1 X174.002 Y133.677 E26.3866
G1 X173.885 Y133.989 E26.40211
G1 X173.697 Y134.266 E26.4177
G1 X173.449 Y134.489 E26.43323
G1 X173.155 Y134.648 E26.44879
G1 X172.831 Y134.732 E26.46438
G1 X172.642 Y134.745 E26.4732
G1 X49.642 Y134.745 E32.2006
G1 X49.31 Y134.705 E32.21617
G1 X48.998 Y134.588 E32.23168
G1 X48.721 Y134.4 E32.24727
G1 X48.498 Y134.152 E32.2628
G1 X48.339 Y133.858 E32.27837
G1 X48.255 Y133.534 E32.29395
G1 X48.242 Y133.345 E32.30277
G1 X48.242 Y72.345 E35.14319
G1 X48.282 Y72.013 E35.15876
G1 X48.399 Y71.701 E35.17428
G1 X48.587 Y71.424 E35.18986
G1 X48.835 Y71.201 E35.20539
G0 F6000 X49.217 Y71.44
G1 F1200 X49.487 Y71.357 E35.21855
G1 X49.642 Y71.345 E35.22579
G1 X172.642 Y71.345 E40.95318
G1 X172.921 Y71.385 E40.96631
G1 X173.178 Y71.501 E40.97943
G1 X173.393 Y71.684 E40.99258
G1 X173.547 Y71.92 E41.0057
G1 X173.63 Y72.19 E41.01886
G1 X173.642 Y72.345 E41.0261
G1 X173.642 Y133.345 E43.86651
G1 X173.602 Y133.624 E43.87964
G1 X173.486 Y133.881 E43.89276
G1 X173.303 Y134.096 E43.90591
G1 X173.067 Y134.25 E43.91903
G1 X172.797 Y134.333 E43.93219
G1 X172.642 Y134.345 E43.93943
G1 X49.642 Y134.345 E49.66682
G1 X49.363 Y134.305 E49.67994
G1 X49.106 Y134.189 E49.69307
G1 X48.891 Y134.006 E49.70622
G1 X48.737 Y133.77 E49.71934
G1 X48.654 Y133.5 E49.7325
G1 X48.642 Y133.345 E49.73973
G1 X48.642 Y72.345 E52.58015
G1 X48.682 Y72.066 E52.59327
G1 X48.798 Y71.809 E52.6064
G1 X48.981 Y71.594 E52.61955
G1 X49.217 Y71.44 E52.63267
G0 F6000 X49.368 Y71.811
G1 F1200 X49.642 Y71.745 E52.6458
G1 X172.642 Y71.745 E58.37319
G1 X172.857 Y71.785 E58.38337
G1 X173.043 Y71.898 E58.39351
G1 X173.176 Y72.071 E58.40367
G1 X173.242 Y72.345 E58.41679
G1 X173.242 Y133.345 E61.25721
G1 X173.202 Y133.56 E61.26739
G1 X173.089 Y133.746 E61.27753
G1 X172.916 Y133.879 E61.28769
G1 X172.642 Y133.945 E61.30081
G1 X49.642 Y133.945 E67.02821
G1 X49.427 Y133.905 E67.03839
G1 X49.241 Y133.792 E67.04852
G1 X49.108 Y133.619 E67.05868
G1 X49.042 Y133.345 E67.07181
G1 X49.042 Y72.345 E69.91222
G1 X49.082 Y72.13 E69.92241
G1 X49.195 Y71.944 E69.93254
G1 X49.368 Y71.811 E69.9427
G0 F6000 X49.481 Y72.226
G1 F1200 X49.642 Y72.145 E69.95109
G1 X172.642 Y72.145 E75.67849
G1 X172.761 Y72.184 E75.68432
G1 X172.842 Y72.345 E75.69271
G1 X172.842 Y133.345 E78.53313
G1 X172.803 Y133.464 E78.53896
G1 X172.642 Y133.545 E78.54735
G1 X49.642 Y133.545 E84.27475
G1 X49.523 Y133.506 E84.28058
G1 X49.442 Y133.345 E84.28897
G1 X49.442 Y72.345 E87.12938
G1 X49.481 Y72.226 E87.13522
G1 F2700 E82.13522
G0 F6000 X57.209 Y96.213
G1 F2700 E87.13522
G1 F1200 X90.059 Y95.745 E88.665
G1 X90.226 Y95.748 E88.67278
G1 X90.543 Y95.76 E88.68755
G1 X90.856 Y95.782 E88.70216
G1 X91.216 Y95.824 E88.71904
G1 X91.469 Y95.866 E88.73098
G1 X91.798 Y95.934 E88.74663
G1 X92.08 Y96.01 E88.76023
G1 X92.119 Y96.022 E88.76213
G1 X92.428 Y96.097 E88.77693
G1 X92.974 Y96.359 E88.80513
G1 X93.299 Y96.54 E88.82245
G1 X93.596 Y96.741 E88.83915
G1 X93.802 Y96.898 E88.85121
G1 X94.025 Y97.093 E88.86501
G1 X94.212 Y97.284 E88.87745
G1 X94.427 Y97.533 E88.89277
G1 X94.588 Y97.747 E88.90524
G1 X94.767 Y98.021 E88.92048
G1 X94.809 Y98.089 E88.9242
G1 X94.935 Y98.316 E88.93629
G1 X95.053 Y98.577 E88.94963
G1 X95.149 Y98.812 E88.96145
G1 X95.291 Y99.248 E88.9828
G1 X95.391 Y99.65 E89.00209
G1 X95.446 Y99.952 E89.01639
G1 X95.485 Y100.233 E89.0296
G1 X95.516 Y100.528 E89.04341
G1 X95.537 Y100.908 E89.06113
G1 X95.542 Y101.048 E89.06765
G1 X95.542 Y101.375 E89.08288
G1 X95.532 Y101.714 E89.09867
G1 X95.513 Y101.975 E89.11086
G1 X95.476 Y102.333 E89.12761
G1 X95.407 Y102.749 E89.14725
G1 X95.353 Y103 E89.1592
G1 X95.261 Y103.344 E89.17579
G1 X95.155 Y103.657 E89.19117
G1 X95.027 Y103.97 E89.20692
G1 X94.913 Y104.211 E89.21933
G1 X94.771 Y104.464 E89.23284
G1 X94.589 Y104.744 E89.24839
G1 X94.425 Y104.959 E89.26099
G1 X94.237 Y105.181 E89.27453
G1 X94 Y105.419 E89.29017
G1 X93.772 Y105.616 E89.3042
G1 X93.541 Y105.792 E89.31772
G1 X93.258 Y105.976 E89.33344
G1 X92.91 Y106.163 E89.35184
G1 X92.655 Y106.28 E89.3649
G1 X92.335 Y106.404 E89.38088
G1 X91.922 Y106.529 E89.40097
G1 X91.531 Y106.615 E89.41962
G1 X91.26 Y106.663 E89.43243
G1 X90.93 Y106.702 E89.4479
G1 X90.672 Y106.725 E89.45997
G1 X90.237 Y106.745 E89.48024
G1 X57.209 Y106.278 E91.01832
G1 X57.209 Y96.213 E91.48699
G0 F6000 X57.609 Y96.608
G1 F1200 X58.397 Y96.596 E91.52368
G1 X58.041 Y96.744 E91.54164
G1 X57.718 Y97.003 E91.56091
G1 X57.609 Y97.16 E91.56981
G1 X57.609 Y96.608 E91.59552
G0 F6000 X58.563 Y96.96
G1 F1200 X58.194 Y97.113 E91.61412
G1 X58.001 Y97.286 E91.62619
G1 X57.942 Y97.427 E91.6333
G1 X57.942 Y105.063 E91.98887
G1 X58.001 Y105.204 E91.99599
G1 X58.283 Y105.486 E92.01456
G1 X58.424 Y105.545 E92.02167
G1 X90.054 Y105.545 E93.4945
G1 X90.47 Y105.534 E93.51388
G1 X90.742 Y105.513 E93.52658
G1 X91.084 Y105.472 E93.54262
G1 X91.293 Y105.436 E93.55249
G1 X91.578 Y105.374 E93.56607
G1 X91.915 Y105.276 E93.58242
G1 X92.192 Y105.169 E93.59624
G1 X92.51 Y105.02 E93.6126
G1 X92.757 Y104.872 E93.626
G1 X93.013 Y104.686 E93.64074
G1 X93.221 Y104.503 E93.65364
G1 X93.426 Y104.284 E93.66761
G1 X93.61 Y104.049 E93.6815
G1 X93.804 Y103.736 E93.69865
G1 X93.952 Y103.436 E93.71423
G1 X94.075 Y103.114 E93.73028
G1 X94.189 Y102.71 E93.74983
G1 X94.271 Y102.28 E93.77021
G1 X94.304 Y102.014 E93.78269
G1 X94.327 Y101.74 E93.79549
G1 X94.341 Y101.415 E93.81064
G1 X94.341 Y101.12 E93.82438
G1 X94.329 Y100.796 E93.83947
G1 X94.315 Y100.588 E93.84918
G1 X94.284 Y100.304 E93.86248
G1 X94.232 Y99.984 E93.87758
G1 X94.159 Y99.664 E93.89286
G1 X94.076 Y99.386 E93.90637
G1 X93.969 Y99.099 E93.92064
G1 X93.851 Y98.846 E93.93363
G1 X93.727 Y98.622 E93.94556
G1 X93.512 Y98.31 E93.9632
G1 X93.266 Y98.031 E93.98052
G1 X93.027 Y97.815 E93.99552
G1 X92.766 Y97.624 E94.01058
G1 X92.484 Y97.457 E94.02584
G1 X92.205 Y97.325 E94.04021
G1 X91.823 Y97.187 E94.05913
G1 X91.569 Y97.115 E94.07142
G1 X91.21 Y97.038 E94.08852
G1 X90.87 Y96.99 E94.1045
G1 X90.536 Y96.961 E94.12012
G1 X90.17 Y96.946 E94.13717
G1 X58.64 Y96.945 E95.60534
G1 X58.563 Y96.96 E95.60899
G1 F2700 E90.60899
G0 F6000 X61.984 Y96.545
G1 F2700 E95.60899
G1 F1200 X90.066 Y96.145 E96.91674
G1 X90.237 Y96.148 E96.92471
G1 X90.52 Y96.159 E96.93789
G1 X90.827 Y96.181 E96.95223
G1 X91.163 Y96.221 E96.96798
G1 X91.425 Y96.265 E96.98035
G1 X91.705 Y96.323 E96.99367
G1 X92.094 Y96.428 E97.01243
G1 X92.296 Y96.477 E97.02211
G1 X92.792 Y96.715 E97.04772
G1 X93.097 Y96.885 E97.06398
G1 X93.356 Y97.061 E97.07857
G1 X93.606 Y97.255 E97.0933
G1 X93.799 Y97.432 E97.10549
G1 X94.007 Y97.656 E97.11973
G1 X94.189 Y97.877 E97.13306
G1 X94.358 Y98.123 E97.14696
G1 X94.578 Y98.497 E97.16716
G1 X94.687 Y98.741 E97.1796
G1 X94.829 Y99.106 E97.19784
G1 X94.904 Y99.347 E97.20959
G1 X95 Y99.736 E97.22825
G1 X95.05 Y100.007 E97.24108
G1 X95.087 Y100.273 E97.25359
G1 X95.117 Y100.547 E97.26642
G1 X95.137 Y100.915 E97.28358
G1 X95.142 Y101.048 E97.28978
G1 X95.142 Y101.362 E97.3044
G1 X95.133 Y101.687 E97.31954
G1 X95.103 Y102.073 E97.33757
G1 X95.064 Y102.384 E97.35216
G1 X95.016 Y102.665 E97.36544
G1 X94.927 Y103.056 E97.38411
G1 X94.853 Y103.31 E97.39643
G1 X94.745 Y103.607 E97.41115
G1 X94.619 Y103.9 E97.426
G1 X94.489 Y104.153 E97.43924
G1 X94.349 Y104.386 E97.4519
G1 X94.176 Y104.631 E97.46586
G1 X93.981 Y104.865 E97.48005
G1 X93.796 Y105.063 E97.49267
G1 X93.517 Y105.307 E97.50993
G1 X93.315 Y105.462 E97.52178
G1 X93.052 Y105.633 E97.53639
G1 X92.736 Y105.803 E97.5531
G1 X92.506 Y105.909 E97.56489
G1 X92.201 Y106.026 E97.5801
G1 X91.832 Y106.139 E97.59807
G1 X91.476 Y106.219 E97.61506
G1 X91.218 Y106.265 E97.62726
G1 X90.88 Y106.305 E97.64311
G1 X90.618 Y106.328 E97.65536
G1 X90.224 Y106.345 E97.67372
G1 X61.952 Y105.945 E98.99032
G1 X90.058 Y105.945 E100.29905
G1 X90.488 Y105.933 E100.31908
G1 X90.781 Y105.911 E100.33276
G1 X91.034 Y105.883 E100.34461
G1 X91.351 Y105.833 E100.35956
G1 X91.677 Y105.762 E100.37509
G1 X92.035 Y105.657 E100.39247
G1 X92.271 Y105.57 E100.40418
G1 X92.532 Y105.457 E100.41742
G1 X92.78 Y105.327 E100.43046
G1 X93.088 Y105.13 E100.44748
G1 X93.327 Y104.945 E100.46156
G1 X93.596 Y104.694 E100.47869
G1 X93.794 Y104.468 E100.49268
G1 X93.946 Y104.267 E100.50441
G1 X94.151 Y103.935 E100.52258
G1 X94.315 Y103.604 E100.53978
G1 X94.451 Y103.25 E100.55744
G1 X94.576 Y102.809 E100.57879
G1 X94.665 Y102.348 E100.60065
G1 X94.701 Y102.059 E100.61421
G1 X94.726 Y101.765 E100.62795
G1 X94.741 Y101.428 E100.64366
G1 X94.741 Y101.111 E100.65842
G1 X94.728 Y100.775 E100.67407
G1 X94.712 Y100.545 E100.68481
G1 X94.679 Y100.244 E100.69891
G1 X94.627 Y99.924 E100.71401
G1 X94.575 Y99.677 E100.72576
G1 X94.462 Y99.279 E100.74502
G1 X94.341 Y98.952 E100.76126
G1 X94.212 Y98.673 E100.77557
G1 X94.073 Y98.421 E100.78897
G1 X93.835 Y98.073 E100.80861
G1 X93.657 Y97.862 E100.82146
G1 X93.424 Y97.63 E100.83677
G1 X93.148 Y97.402 E100.85344
G1 X92.843 Y97.2 E100.87047
G1 X92.569 Y97.052 E100.88498
G1 X92.259 Y96.915 E100.90076
G1 X91.956 Y96.81 E100.91569
G1 X91.68 Y96.73 E100.92907
G1 X91.287 Y96.645 E100.94779
G1 X90.928 Y96.594 E100.96468
G1 X90.563 Y96.562 E100.98174
G1 X90.185 Y96.546 E100.99935
G1 X61.984 Y96.545 E102.31251
G1 F2700 E97.31251
G0 F6000 X57.609 Y105.319
G1 F2700 E102.31251
G1 F1200 X57.718 Y105.487 E102.32184
G1 X58 Y105.769 E102.34041
G1 X58.177 Y105.891 E102.35042
G1 X57.609 Y105.883 E102.37687
G1 X57.609 Y105.319 E102.40313
G1 F2700 E97.40313
G0 F6000 X106.744 Y93.828
G1 F2700 E102.40313
G1 F1200 X114.325 Y93.939 E102.75617
G1 X114.44 Y111.095 E103.55504
G1 X106.744 Y111.095 E103.9134
G1 X106.744 Y93.828 E104.71743
G0 F6000 X107.144 Y94.234
G1 F1200 X109.809 Y94.273 E104.84153
G1 X107.674 Y94.273 E104.94095
G1 X107.459 Y94.313 E104.95113
G1 X107.144 Y94.555 E104.96963
G1 X107.144 Y94.234 E104.98457
G0 F6000 X107.192 Y95.155
G1 F1200 X107.192 Y110.164 E105.68346
G1 X107.251 Y110.305 E105.69057
G1 X107.533 Y110.587 E105.70914
G1 X107.674 Y110.646 E105.71626
G1 X113.11 Y110.646 E105.96938
G1 X113.251 Y110.587 E105.9765
G1 X113.533 Y110.305 E105.99507
G1 X113.592 Y110.164 E106.00219
G1 X113.592 Y95.155 E106.70107
G1 X113.533 Y95.014 E106.70819
G1 X113.251 Y94.732 E106.72676
G1 X113.11 Y94.673 E106.73387
G1 X107.674 Y94.673 E106.987
G1 X107.533 Y94.732 E106.99411
G1 X107.251 Y95.014 E107.01268
G1 X107.192 Y95.155 E107.0198
G1 F2700 E102.0198
G0 F6000 X113.355 Y94.325
G1 F2700 E107.0198
G1 F1200 X113.928 Y94.333 E107.04649
G1 X113.932 Y94.909 E107.07331
G1 X113.816 Y94.731 E107.0832
G1 X113.534 Y94.449 E107.10177
G1 X113.355 Y94.325 E107.11191
G1 F2700 E102.11191
G0 F6000 X108.99 Y86.976
G1 F2700 E107.11191
G1 F1200 X109.256 Y86.821 E107.12625
G1 X109.537 Y86.566 E107.14391
G1 X109.757 Y86.257 E107.16158
G1 X109.796 Y86.169 E107.16606
G1 X110.987 Y86.169 E107.22152
G1 X111.14 Y86.433 E107.23573
G1 X111.395 Y86.714 E107.25339
G1 X111.708 Y86.936 E107.27126
G1 X108.99 Y86.976 E107.39784
G0 F6000 X107.944 Y86.769
G1 F1200 X108.192 Y86.769 E107.40939
G1 X108.524 Y86.729 E107.42496
G1 X108.836 Y86.612 E107.44047
G1 X109.113 Y86.424 E107.45606
G1 X109.336 Y86.176 E107.47159
G1 X109.495 Y85.882 E107.48716
G1 X109.524 Y85.769 E107.49259
G1 X111.257 Y85.769 E107.57328
G1 X111.349 Y86.013 E107.58543
G1 X111.537 Y86.29 E107.60101
G1 X111.785 Y86.513 E107.61654
G1 X112.079 Y86.672 E107.63211
G1 X112.403 Y86.756 E107.64769
G1 X112.592 Y86.769 E107.65651
G1 X113.175 Y86.769 E107.68366
G1 X113.16 Y87.315 E107.7091
G1 X107.944 Y87.391 E107.952
G1 X107.944 Y86.769 E107.98096
G0 F6000 X107.544 Y86.369
G1 F1200 X108.192 Y86.369 E108.01114
G1 X108.471 Y86.329 E108.02426
G1 X108.728 Y86.213 E108.03739
G1 X108.943 Y86.03 E108.05054
G1 X109.097 Y85.794 E108.06366
G1 X109.18 Y85.524 E108.07681
G1 X109.192 Y85.369 E108.08405
G1 X111.592 Y85.369 E108.1958
G1 X111.632 Y85.648 E108.20893
G1 X111.748 Y85.905 E108.22206
G1 X111.931 Y86.12 E108.23521
G1 X112.167 Y86.274 E108.24833
G1 X112.437 Y86.357 E108.26148
G1 X112.592 Y86.369 E108.26872
G1 X113.586 Y86.369 E108.315
G1 X113.548 Y87.709 E108.37743
G1 X107.544 Y87.797 E108.65703
G1 X107.544 Y86.369 E108.72352
G0 F6000 X107.144 Y85.969
G1 F1200 X108.192 Y85.969 E108.77232
G1 X108.407 Y85.929 E108.7825
G1 X108.593 Y85.816 E108.79264
G1 X108.726 Y85.643 E108.8028
G1 X108.792 Y85.369 E108.81592
G1 X108.792 Y84.969 E108.83455
G1 X111.992 Y84.969 E108.98355
G1 X111.992 Y85.369 E109.00218
G1 X112.032 Y85.584 E109.01236
G1 X112.145 Y85.77 E109.02249
G1 X112.318 Y85.903 E109.03266
G1 X112.592 Y85.969 E109.04578
G1 X113.998 Y85.969 E109.11125
G1 X113.937 Y88.103 E109.21066
G1 X107.144 Y88.203 E109.527
G1 X107.144 Y85.969 E109.63103
G0 F6000 X106.744 Y85.569
G1 F1200 X108.192 Y85.569 E109.69845
G1 X108.311 Y85.53 E109.70428
G1 X108.392 Y85.369 E109.71267
G1 X108.392 Y84.569 E109.74993
G1 X112.392 Y84.569 E109.93618
G1 X112.392 Y85.369 E109.97343
G1 X112.431 Y85.488 E109.97927
G1 X112.592 Y85.569 E109.98766
G1 X114.409 Y85.569 E110.07226
G1 X114.326 Y88.499 E110.20875
G1 X106.744 Y88.609 E110.56184
G1 X106.744 Y85.569 E110.70339
G1 F2700 E105.70339
G0 F6000 X113.992 Y103.899
G1 F2700 E110.70339
G1 F1200 X114.037 Y110.695 E111.01985
G1 X113.709 Y110.695 E111.03512
G1 X113.94 Y110.409 E111.05224
G1 X113.992 Y110.164 E111.06391
G1 X113.992 Y103.899 E111.35563
G1 F2700 E106.35563
G0 F6000 X106.744 Y117.077
G1 F2700 E111.35563
G1 F1200 X114.329 Y117.188 E111.70886
G1 X114.412 Y120.122 E111.84553
